usr/share/icons/biglinux-icons-material/24/actions/vcs-diff.svg

<svg xmlns="http://www.w3.org/2000/svg" id="svg15" version="1.1" viewBox="0 0 24 24" width="24" height="24">
  <style id="current-color-scheme" type="text/css">.ColorScheme-Text {
            color:#dedede;
        }</style>
  <g transform="translate(1,1)">
    <path id="path3" class="ColorScheme-Text" d="m5.5 4a2.5 2.5 0 0 0-2.5 2.5 2.5 2.5 0 0 0 2.5 2.5 2.5 2.5 0 0 0 2.5-2.5 2.5 2.5 0 0 0-2.5-2.5zm0 1a1.5 1.5 0 0 1 1.5 1.5 1.5 1.5 0 0 1-1.5 1.5 1.5 1.5 0 0 1-1.5-1.5 1.5 1.5 0 0 1 1.5-1.5z" fill="currentColor"/>
    <path id="path5" class="ColorScheme-Text" d="m5 8v6a2 2 0 0 0 1.9511719 2 2 2 0 0 0 0.0488281 0h4v-1h-4a1 1 0 0 1-1-1v-6z" fill="currentColor"/>
    <path id="path7" d="m8.5 11.792969-0.7070312 0.707031 0.3535156 0.353516 2.6464846 2.646484-2.6464846 2.646484-0.3535156 0.353516 0.7070312 0.707031 0.3535156-0.353515 3.3535154-3.353516-3.3535154-3.353516-0.3535156-0.353515z" class="ColorScheme-Text" fill="currentColor"/>
    <path id="path9" class="ColorScheme-Text" d="m15.5 18a2.5 2.5 0 0 0 2.5-2.5 2.5 2.5 0 0 0-2.5-2.5 2.5 2.5 0 0 0-2.5 2.5 2.5 2.5 0 0 0 2.5 2.5zm0-1a1.5 1.5 0 0 1-1.5-1.5 1.5 1.5 0 0 1 1.5-1.5 1.5 1.5 0 0 1 1.5 1.5 1.5 1.5 0 0 1-1.5 1.5z" fill="currentColor"/>
    <path id="path11" class="ColorScheme-Text" d="m16 14v-6.0000002a2 2 0 0 0-1.951172-2 2 2 0 0 0-0.04883 0h-3.9999981v1h4.0000001a1 1 0 0 1 1 1v6.0000002z" fill="currentColor"/>
    <path id="path13" d="M 12.5 2.7929688 L 12.146484 3.1464844 L 8.7929688 6.5 L 12.146484 9.8535156 L 12.5 10.207031 L 13.207031 9.5 L 12.853516 9.1464844 L 10.207031 6.5 L 12.853516 3.8535156 L 13.207031 3.5 L 12.5 2.7929688 z " class="ColorScheme-Text" fill="currentColor"/>
  </g>
</svg>

<svg xmlns="http://www.w3.org/2000/svg" id="svg15" width="24" height="24" version="1.1"><style id="current-color-scheme" type="text/css">.ColorScheme-Text{color:#dedede}</style><g transform="translate(1 1)"><path id="path3" fill="currentColor" d="M5.5 4A2.5 2.5 0 0 0 3 6.5 2.5 2.5 0 0 0 5.5 9 2.5 2.5 0 0 0 8 6.5 2.5 2.5 0 0 0 5.5 4zm0 1A1.5 1.5 0 0 1 7 6.5 1.5 1.5 0 0 1 5.5 8 1.5 1.5 0 0 1 4 6.5 1.5 1.5 0 0 1 5.5 5z" class="ColorScheme-Text"/><path id="path5" fill="currentColor" d="M5 8v6a2 2 0 0 0 1.951 2A2 2 0 0 0 7 16h4v-1H7a1 1 0 0 1-1-1V8z" class="ColorScheme-Text"/><path id="path7" fill="currentColor" d="m8.5 11.793-.707.707.353.354 2.647 2.646-2.647 2.646-.353.354.707.707.354-.353 3.353-3.354-3.353-3.354-.354-.353z" class="ColorScheme-Text"/><path id="path9" fill="currentColor" d="M15.5 18a2.5 2.5 0 0 0 2.5-2.5 2.5 2.5 0 0 0-2.5-2.5 2.5 2.5 0 0 0-2.5 2.5 2.5 2.5 0 0 0 2.5 2.5zm0-1a1.5 1.5 0 0 1-1.5-1.5 1.5 1.5 0 0 1 1.5-1.5 1.5 1.5 0 0 1 1.5 1.5 1.5 1.5 0 0 1-1.5 1.5z" class="ColorScheme-Text"/><path id="path11" fill="currentColor" d="M16 14V8a2 2 0 0 0-1.951-2A2 2 0 0 0 14 6h-4v1h4a1 1 0 0 1 1 1v6z" class="ColorScheme-Text"/><path id="path13" fill="currentColor" d="m12.5 2.793-.354.353L8.793 6.5l3.353 3.354.354.353.707-.707-.353-.354L10.207 6.5l2.647-2.646.353-.354-.707-.707z" class="ColorScheme-Text"/></g></svg>
